src/assets/img/icons/github.svg

<svg xmlns="http://www.w3.org/2000/svg" xmlns:xlink="http://www.w3.org/1999/xlink" height="20" width="20">
  <defs>
    <rect id="rect-1" opacity="1" x="0" y="0" width="20" height="20"/>
    <mask id="mask-2" maskUnits="userSpaceOnUse" maskContentUnits="userSpaceOnUse">
      <rect opacity="1" x="0" y="0" width="20" height="20" fill="Black"/>
      <use xlink:href="#rect-1" fill="White"/>
    </mask>
  </defs>
  <g opacity="1">
    <g/>
    <g mask="url(#mask-2)">
      <g opacity="1">
        <g opacity="1">
          <path fill="rgb(255,255,255)" fill-opacity="1" opacity="1" fill-rule="evenodd" d="M18.658439535832933 5.225094573241261C17.764217909515235 3.692951072743027 16.551263370797784 2.4799509290874706 15.019256685113858 1.5858205126459781C13.48702197473942 0.6916444912663824 11.814278450070569 0.2446704929218413 9.999840382716638 0.2446704929218413C8.185630340053219 0.2446704929218413 6.512339556127136 0.6917813060806904 4.980424080319415 1.5858205126459781C3.4482805798211826 2.4799053241493683 2.235371646041833 3.692951072743027 1.341150019724136 5.225094573241261C0.44706520822074597 6.757192468801394 0 8.430255228036966 0 10.24423724600987C0 12.423241188556771 0.6357328371516064 14.382657354139184 1.9075177460215385 16.122987397076233C3.1791658400771623 17.86345425482759 4.8219469204125405 19.067789460243635 6.8357241722133635 19.736129828138672C7.070133554061229 19.779636939088647 7.243660343541996 19.749036025621738 7.35648696040807 19.645102371685688C7.469359182212246 19.541031902935334 7.525726885707182 19.410692989837823 7.525726885707182 19.25463289165039C7.525726885707182 19.22859247199375 7.523492243740149 18.99431990496019 7.519159774620393 18.5515415609211C7.514690490686329 18.108763216882007 7.512592663533604 17.722489391152155 7.512592663533604 17.39290250348396L7.213105035013188 17.444709713168624C7.022157159177191 17.479688700693394 6.781271876118743 17.49451030557677 6.490449185837839 17.490314651271323C6.199763310371244 17.486255811780183 5.897995434945693 17.455791713127578 5.585556004004111 17.399150380004027C5.27297975824822 17.343010701199606 4.982248277843523 17.212808602916404 4.713133538099504 17.00881771478304C4.444155613169793 16.80482682664967 4.253207737333796 16.537809914058375 4.14033551552962 16.208177421452078L4.010133417246418 15.908552978117351C3.9233472200369834 15.70907697885615 3.786714825481301 15.487482584615142 3.600053813826959 15.244590684280173C3.413392802172617 15.00147075925469 3.2246339633655516 14.836654512951542 3.033686087529556 14.749868315742107L2.9425218162622633 14.684607649317147C2.8817760387094697 14.64123735318148 2.8254083352145356 14.588928489177686 2.7732818909631525 14.528228316562998C2.7212010516498712 14.467528143948305 2.6822088295720645 14.406782366395511 2.6561684099154244 14.345945378966514C2.6300823853206814 14.285062786599413 2.65169912598136 14.235125379376957 2.721246656587974 14.195950737546742C2.7907941871945883 14.156776095716525 2.916481396605623 14.137758836527698 3.0988555440783108 14.137758836527698L3.3591685307685095 14.176659848729301C3.53278653012548 14.211456416501658 3.7475401836510835 14.315390070437704 4.003703120973937 14.489099279670882C4.259729243482482 14.66267167408975 4.470196032826432 14.888324907821898 4.63514909394389 15.165967770991122C4.834898722833706 15.52195991782078 5.075555981201642 15.793218089655628 5.3578049431192385 15.979879101309969C5.639825880346321 16.166540112964313 5.924172669416642 16.259711001508123 6.210571680701584 16.259711001508123C6.496970691986526 16.259711001508123 6.744331876255559 16.238003050971237 6.9527464433848865 16.194815174587987C7.160932985823702 16.151399273514215 7.356258935717557 16.086138607089257 7.538633083190245 15.999398014817924C7.616754342160166 15.417570214503707 7.829455773471149 14.970596216159162 8.176554957370781 14.658156785217582C7.681832588832715 14.606167155780506 7.237047627517105 14.527863477058172 6.8419720487334335 14.423747403369715C6.447124494640277 14.319494514866948 6.0390971134354405 14.150300194505938 5.618163534747539 13.915708392905662C5.197001931369126 13.681435825872104 4.847622500564358 13.390521925714992 4.569934032457032 13.043468346753464C4.292199959411603 12.696232348039524 4.06426647877432 12.240365386764957 3.886452825111901 11.676277907372688C3.708547961573277 11.111962403289908 3.619572727334914 10.460997516811998 3.619572727334914 9.723200828186554C3.619572727334914 8.67269107899091 3.9625218618672005 7.778743082301829 4.648283316117467 7.040855183800177C4.327042132122064 6.251068865737655 4.357369415960357 5.365694597411881 4.739356377508554 4.384823588699057C4.991095635835445 4.30661111985293 5.364417659144129 4.365304675191103 5.859140027682193 4.560539415208751C6.353953606096463 4.755865365102607 6.716239234384296 4.923189883001404 6.9463617520505085 5.061920104709811C7.17648426971672 5.200604721480115 7.360865034465928 5.318128646970767 7.499777675926745 5.413442967605405C8.307213105035007 5.18783533881136 9.140460929109398 5.075008721945285 9.99974917284043 5.075008721945285C10.859037416571459 5.075008721945285 11.692467660398263 5.18783533881136 12.499948694444626 5.413442967605405L12.994716667920795 5.101094746540029C13.333059703704707 4.8926801794107 13.732604566422443 4.7016866986366015 14.192393552373842 4.528068699279631C14.652456167953858 4.354541909798865 15.004252660478068 4.306747934667238 15.247418190441653 4.384960403513365C15.63788767047695 5.365877017164292 15.672684238249309 6.251205680551963 15.351351844377701 7.040991998614485C16.037067693689863 7.778879897116136 16.38015364303646 8.673055918495729 16.38015364303646 9.723337643000862C16.38015364303646 10.461134331626306 16.290859174231375 11.114151440318834 16.11322794032137 11.682799413521373C15.935368681720849 12.251538596600117 15.70547418874515 12.706949508493656 15.423453251518067 13.049989852902149C15.141113079724265 13.392984592372539 14.789499006952465 13.681618245624513 14.368565428264562 13.91584520771997C13.94754063970046 14.150254589567835 13.539376443681313 14.319448909928845 13.144528889588157 14.423701798431612C12.74949891574259 14.527954686934379 12.304713954426976 14.606303970594816 11.809991585888913 14.658384809908096C12.261206843477007 15.048854289943396 12.486860077209153 15.665205028401354 12.486860077209153 16.50716339565336L12.486860077209153 19.25426805214557C12.486860077209153 19.410328150333 12.541129953551362 19.54062145849241 12.649760916111989 19.64473753218087C12.758255063858307 19.748671186116916 12.929592816310144 19.779272099583824 13.164002198158009 19.735719383695752C15.178053079587452 19.06747022567692 16.82083415992283 17.863089415322772 18.092436649040348 16.122622557571418C19.363902323343563 14.382292514634365 19.99986318518568 12.422876349051952 19.99986318518568 10.243872406505053C19.999407135804656 8.43011841322266 19.552113902893396 6.757192468801397 18.65843953583293 5.225094573241265L18.658439535832933 5.225094573241261Z"/>
        </g>
      </g>
    </g>
  </g>
</svg>

<svg height="20" width="20" xmlns="http://www.w3.org/2000/svg" xmlns:xlink="http://www.w3.org/1999/xlink"><mask id="a" maskUnits="userSpaceOnUse"><path d="m0 0h20v20h-20z"/><path d="m0 0h20v20h-20z" fill="#fff"/></mask><g mask="url(#a)"><path d="m18.658 5.225a9.956 9.956 0 0 0 -3.639-3.64c-1.532-.892-3.205-1.339-5.019-1.339-1.813 0-3.487.447-5.019 1.34a9.955 9.955 0 0 0 -3.639 3.64c-.895 1.531-1.342 3.204-1.342 5.019 0 2.178.636 4.138 1.908 5.878 1.271 1.74 2.914 2.945 4.928 3.613.234.044.408.013.52-.09a.51.51 0 0 0 .17-.391l-.007-.703c-.004-.443-.006-.83-.006-1.16l-.3.053a3.82 3.82 0 0 1 -.723.045 5.506 5.506 0 0 1 -.904-.09 2.022 2.022 0 0 1 -.873-.391 1.652 1.652 0 0 1 -.573-.8l-.13-.3a3.254 3.254 0 0 0 -.41-.664c-.187-.244-.375-.408-.566-.495l-.091-.065a.956.956 0 0 1 -.17-.157.714.714 0 0 1 -.117-.182c-.026-.06-.004-.11.065-.15.07-.04.195-.058.378-.058l.26.039c.174.034.389.138.645.312s.466.4.631.677c.2.356.44.627.723.814.282.187.566.28.853.28.286 0 .533-.022.742-.065a2.59 2.59 0 0 0 .586-.196c.078-.581.29-1.028.638-1.34a8.916 8.916 0 0 1 -1.335-.235 5.314 5.314 0 0 1 -1.224-.508 3.505 3.505 0 0 1 -1.048-.873c-.278-.347-.506-.803-.684-1.367-.177-.564-.266-1.215-.266-1.953 0-1.05.343-1.944 1.028-2.682-.321-.79-.29-1.675.091-2.656.252-.078.625-.02 1.12.176.495.195.857.362 1.087.5.23.14.415.257.554.352a9.246 9.246 0 0 1 2.5-.338c.859 0 1.692.113 2.5.338l.495-.312c.338-.208.738-.4 1.197-.573.46-.173.812-.221 1.055-.143.39.98.426 1.866.104 2.656.686.738 1.03 1.632 1.03 2.682 0 .738-.09 1.391-.268 1.96s-.408 1.024-.69 1.367a3.64 3.64 0 0 1 -1.054.866c-.421.234-.83.403-1.224.508-.396.104-.84.182-1.335.234.451.39.677 1.007.677 1.85v2.746c0 .156.054.287.163.39.108.105.28.135.514.092 2.014-.669 3.657-1.873 4.928-3.613 1.272-1.74 1.908-3.7 1.908-5.88 0-1.813-.448-3.486-1.342-5.018z" fill="#fff" fill-rule="evenodd"/></g></svg>
